!!!COM: Palestrina, Giovanni Perluigi da
!!!OPR: Missa Ave Maria (1594)
!!!OMD: Credo
!!!OTL: Crucifixus
**kern	**kern	**kern
*Itenor	*Icalto	*Icant
!Tenor	!Altus	!Cantus
*clefGv2	*clefG2	*clefG2
*k[]	*k[]	*k[]
*A:aeo	*A:aeo	*A:aeo
*M4/2	*M4/2	*M4/2
=92	=92	=92
0r	0r	1.cc
.	.	2a
=93	=93	=93
0r	1r	1ee
.	[1f	1a
=94	=94	=94
0r	2f]	2.dd
.	2d	.
.	.	4dd
.	1a	2cc
.	.	2cc
=95	=95	=95
0r	1d	1ff
.	2.a	[1ee
.	4a	.
=96	=96	=96
1.c	2g	1ee]
.	2g	.
.	1cc	2.a
2A	.	.
.	.	4a
=97	=97	=97
1e	1b	2g
.	.	2g
1A	2r	1cc
.	2a	.
=98	=98	=98
2.d	2.f	2.a
4d	4g	4b
2c	4a	4cc
.	4b	4dd
2c	[2cc	2ee
=99	=99	=99
1f	4cc]	4a
.	4b	4b
.	1a	4cc
.	.	4a
1e	.	1b
.	2g#	.
=100	=100	=100
2r	0a	2a
2c	.	2ee
2.d	.	2.ff
4c	.	4ee
=101	=101	=101
2c	2r	2ee
2B	2g	2dd
4A	2.a	4cc
4G	.	4b
4A	.	4cc
4B	4g	4dd
=102	=102	=102
2c	2g	2ee
2d	2f	1dd
2.A	1e	.
.	.	4cc
4G	.	4b
=103	=103	=103
4A	2e	1cc
4B	.	.
4c	1a	.
4d	.	.
1e	.	2b
.	2g	[2ee
=104	=104	=104
0r	2cc	2ee]
.	2b	2dd
.	2a	2ff
.	2cc	2ee
=105	=105	=105
0r	2b	2dd
.	2.a	2ff
.	.	2ee
.	4g	.
.	4f	[2dd
.	4e	.
=106	=106	=106
2r	1f	4dd]
.	.	4cc
1a	.	4cc
.	.	8b
.	.	8a
.	1e	1b
2g	.	.
=107	=107	=107
2f	2a	1cc
2e	2g	.
2d	2b-	1dd
2f	2a	.
=108	=108	=108
2e	2g	2cc
2.d	2.f	2b-
.	.	2a
4c	4e	.
4c	[2e	[2g
8B-	.	.
8A	.	.
=109	=109	=109
1B-	4e]	4g]
.	4d	4f
.	1d	4f
.	.	8e
.	.	8d
1A	.	1e
.	2c#	.
=110	=110	=110
2r	1d	2.f
2d	.	.
.	.	4g
2d	2r	1a
2d	2a	.
=111	=111	=111
1f	2a	0r
.	2a	.
2e	1cc	.
2a	.	.
=112	=112	=112
2g	2b	1r
2f	2a	.
2e	2g	2r
[2d	[2f	2a
=113	=113	=113
2d]	2f]	2a
4c	4e	2a
4B	4d	.
4A	2e	1cc
4B	.	.
4c	2a	.
4d	.	.
=114	=114	=114
1e	2g	2b
.	2cc	2ee
2r	2b	2dd
2A	2a	[2cc
=115	=115	=115
1c	1e	4cc]
.	.	4dd
.	.	4ee
.	.	4cc
2B	2r	2dd
2A	2e	2cc
=116	=116	=116
1e	1g	1b
2d	2f	1r
4c	2e	.
4B	.	.
=117	=117	=117
4A	1a	1r
4B	.	.
4c	.	.
4d	.	.
2e	2g	2r
[2d	2f	2a
=118	=118	=118
2d]	1e	1ee
2c#	.	.
1d	2r	1ff
.	2d	.
=119	=119	=119
1r	1a	2ee
.	.	2cc
2r	1cc	4ee
.	.	4dd
2A	.	4ee
.	.	4ff
=120	=120	=120
1e	2b	4gg
.	.	4ff
.	2g	4ee
.	.	4dd
1f	4a	2cc
.	4g	.
.	4a	2dd
.	4b	.
=121	=121	=121
2e	1.cc	0ee
2c	.	.
4e	.	.
4d	.	.
4e	4b	.
4f	4a	.
=122	=122	=122
4g	1b	2r
4f	.	.
4e	.	1ee
4d	.	.
2c	2a	.
2d	[2a	[2dd
=123	=123	=123
1e	2a]	2dd]
.	1g	2cc
1d	.	2.dd
.	2f#	.
.	.	4cc
=124	=124	=124
0r	2.g	2b
.	.	2.ee
.	4f	.
.	2e	.
.	.	4dd
.	[2a	4cc
.	.	4b
=125	=125	=125
2r	2a]	2cc
1e	4g	4b
.	4f	4a
.	2e	2g
[2d	2f	2a
=126	=126	=126
2d]	2d	2b
2c	1g	2cc
2.d	.	1a
.	2f#	.
4c	.	.
=127	=127	=127
2B	0g	1g
2.e	.	.
.	.	2r
4d	.	.
4c	.	[2ee
4B	.	.
=128	=128	=128
2c	2r	2ee]
2B	2g	1dd
1A	2f	.
.	2e	2cc
=129	=129	=129
2r	2d	2.dd
1a	2d	.
.	.	4cc
.	2.e	2b
[2g	.	[2ee
.	4d	.
=130	=130	=130
2g]	2c	2ee]
2f	2d	4dd
.	.	4cc
2.g	1e	1b
4f	.	.
=131	=131	=131
2e	1A	2.cc
2.a	.	.
.	.	4dd
.	1r	2ee
4g	.	.
4f	.	[2ff
4e	.	.
=132	=132	=132
2d	1r	2ff]
2c	.	1ee
1f	2r	.
.	[2a	2dd
=133	=133	=133
1e	2a]	2cc
.	1g	2b
2r	.	2.a
2d	2f#	.
.	.	4b
=134	=134	=134
2c	2.g	2cc
2B	.	2dd
.	4f	.
2.c	2e	2.ee
.	[2a	.
4B	.	4dd
=135	=135	=135
2A	4a]	2ee
.	4g	.
1d	4f	1ff
.	4e	.
.	2d	.
2c	2e	2ee
=136	=136	=136
2B-	1f	2dd
2A	.	2cc
1G	1g	1b-
=137	=137	=137
0d	0f#	0a
*-	*-	*-
!!!CDT: 1525/^1526/-1594/2/2
!!!OCY: Italia
!!!AGN: Mass (Paraphrase)
!!!AST: renaissance, vocal
!!!ASW: Prayer
!!!PWK: Masses, Book 7
!!!RNB: Cadence finals: D
!!!YOR: Le Opere Complete, v. 23, p. 1
!!!YOO: Rome, Italy: Fratelli Scalera
!!!END: 1992//
!!!EED: John Miller
!!!YEC: Copyright 2000, John Miller
!!!YEN: United States of America
!!!YEM: Rights to all derivative electronic formats reserved.
!!!YEM: Refer to licensing agreement for further details.
!!!YEM: This file must be accompanied by the licensing agreement.
!!!YEM: A copy of the licensing agreement may be found at http://www.music-cog.ohio-state.edu/HumdrumDatabases/Palestrina/license.txt
!!!EMD: converted to Humdrum by Bret Aarden
